src/assets/icons/icon-search.svg

<svg width="514" height="514" viewBox="0 0 514 514" fill="none" xmlns="http://www.w3.org/2000/svg">
<path d="M13.9959 433.87L125.996 321.87C130.367 317.522 136.281 315.085 142.445 315.085C148.609 315.085 154.523 317.522 158.894 321.87L177.328 303.671C177.328 303.671 179.195 302.503 180.129 301.804C154.266 269.128 140.203 228.675 140.227 187.004C140.184 144.793 154.45 103.816 180.692 70.7538C206.934 37.6918 243.606 14.5038 284.732 4.9688C325.849 -4.5703 368.986 0.1133 407.102 18.2498C445.219 36.3828 476.063 66.9018 494.602 104.824C513.141 142.742 518.278 185.828 509.18 227.044C500.082 268.263 477.285 305.181 444.504 331.774C411.723 358.368 370.899 373.067 328.694 373.469C286.487 373.875 245.389 359.961 212.104 334.004C212.104 334.004 212.104 335.871 210.237 336.57L192.038 355.004C196.385 359.375 198.823 365.289 198.823 371.453C198.823 377.617 196.385 383.531 192.038 387.902L80.0375 499.902C68.2405 511.699 51.0495 516.304 34.9355 511.988C18.8215 507.672 6.23653 495.086 1.91953 478.972C-2.39747 462.858 2.20858 445.667 14.0055 433.87L13.9959 433.87ZM326.896 327C364.025 327 399.634 312.25 425.892 285.996C452.146 259.738 466.896 224.129 466.896 187C466.896 149.871 452.146 114.262 425.892 88.004C399.634 61.75 364.025 47 326.896 47C289.767 47 254.158 61.75 227.9 88.004C201.646 114.262 186.896 149.871 186.896 187C186.896 224.129 201.646 259.738 227.9 285.996C254.158 312.25 289.767 327 326.896 327Z" fill="black"/>
</svg>

<svg width="514" height="514" fill="none" xmlns="http://www.w3.org/2000/svg"><path d="m13.996 433.87 112-112a23.321 23.321 0 0 1 16.449-6.785 23.321 23.321 0 0 1 16.449 6.785l18.434-18.199s1.867-1.168 2.801-1.867a184.803 184.803 0 0 1-39.902-114.8 186.685 186.685 0 0 1 40.465-116.25 186.639 186.639 0 0 1 104.04-65.785 186.637 186.637 0 0 1 122.37 13.28A186.66 186.66 0 0 1 509.18 227.044 186.66 186.66 0 0 1 328.694 373.47a186.674 186.674 0 0 1-116.59-39.465s0 1.867-1.867 2.566l-18.199 18.434a23.325 23.325 0 0 1 6.785 16.449 23.325 23.325 0 0 1-6.785 16.449l-112 112a46.695 46.695 0 0 1-45.102 12.086 46.693 46.693 0 0 1-20.93-78.118h-.01ZM326.896 327c37.129 0 72.738-14.75 98.996-41.004A140.013 140.013 0 0 0 466.896 187c0-37.129-14.75-72.738-41.004-98.996A140.013 140.013 0 0 0 326.896 47 140.013 140.013 0 0 0 227.9 88.004 140.013 140.013 0 0 0 186.896 187c0 37.129 14.75 72.738 41.004 98.996A140.013 140.013 0 0 0 326.896 327Z" fill="#000"/></svg>
